src/Resource_Files/main/format-text-bold.svg

<svg clip-rule="evenodd" fill-rule="evenodd" stroke-linejoin="round" stroke-miterlimit="2" viewBox="0 0 48 48" xmlns="http://www.w3.org/2000/svg"><path d="m15.687 36.243h8.891c2.687 0 4.809-.597 6.367-1.789 1.557-1.193 2.336-2.826 2.336-4.899 0-1.396-.318-2.531-.953-3.406-.636-.875-1.662-1.5-3.078-1.875v-.156c1.072-.261 1.937-.844 2.593-1.75.657-.907.985-2 .985-3.282 0-1.947-.753-3.382-2.258-4.304-1.506-.922-3.81-1.383-6.914-1.383h-7.969zm6.172-18.172h1.734c1.938 0 2.907.64 2.907 1.922 0 .718-.243 1.26-.727 1.625-.484.364-1.169.547-2.055.547h-1.859zm2.047 8.609c.979 0 1.726.203 2.242.61.516.406.773.989.773 1.75 0 1.625-.963 2.437-2.89 2.437h-2.172v-4.797z" fill="#0ca4d5" fill-rule="nonzero"/></svg>

<?xml version="1.0" encoding="UTF-8" standalone="no"?>
<!DOCTYPE svg PUBLIC "-//W3C//DTD SVG 1.1//EN" "http://www.w3.org/Graphics/SVG/1.1/DTD/svg11.dtd">
<svg width="100%" height="100%" viewBox="0 0 48 48" version="1.1" xmlns="http://www.w3.org/2000/svg" xmlns:xlink="http://www.w3.org/1999/xlink" xml:space="preserve" xmlns:serif="http://www.serif.com/" style="fill-rule:evenodd;clip-rule:evenodd;stroke-linejoin:round;stroke-miterlimit:2;">
    <path d="M15.687,36.243L24.578,36.243C27.265,36.243 29.387,35.646 30.945,34.454C32.502,33.261 33.281,31.628 33.281,29.555C33.281,28.159 32.963,27.024 32.328,26.149C31.692,25.274 30.666,24.649 29.25,24.274L29.25,24.118C30.322,23.857 31.187,23.274 31.843,22.368C32.5,21.461 32.828,20.368 32.828,19.086C32.828,17.139 32.075,15.704 30.57,14.782C29.064,13.86 26.76,13.399 23.656,13.399L15.687,13.399L15.687,36.243ZM21.859,18.071L23.593,18.071C25.531,18.071 26.5,18.711 26.5,19.993C26.5,20.711 26.257,21.253 25.773,21.618C25.289,21.982 24.604,22.165 23.718,22.165L21.859,22.165L21.859,18.071ZM23.906,26.68C24.885,26.68 25.632,26.883 26.148,27.29C26.664,27.696 26.921,28.279 26.921,29.04C26.921,30.665 25.958,31.477 24.031,31.477L21.859,31.477L21.859,26.68L23.906,26.68Z" fill="#0ca4d5" style="fill-rule:nonzero;"/>
</svg>
